X:710
T: Annamaculeen
T: R\'il Eanach Mhic Coil\'in
S: B.Breathnach: "Ceol Rince na hEireann" II/194
Z: B.Black
L: 1/8
M: 4/4
R: reel
K: Ador
GA|Beed BAGA|Bdef g3 z|Beed BAGA|BGdB A2 GA|
Beed BAGA|Bdef g3a|bgaf gfed|efdB A2 ||
GA|BE E2 DEGA|BE E2 d2 BA|BE E2 DEGA|BGdB A2 GA|
BE E2 DEGA|BE E2 d2 BA|BE E2 DEGA|BGdB A2 ||
